assets/img/braze_icons/image-01.svg

<svg fill="none" height="24" viewBox="0 0 24 24" width="24" xmlns="http://www.w3.org/2000/svg"><g clip-rule="evenodd" fill="#801ed7" fill-rule="evenodd"><path d="m8.5 5.5c-1.65685 0-3 1.34315-3 3 0 1.6569 1.34315 3 3 3 1.6569 0 3-1.3431 3-3 0-1.65685-1.3431-3-3-3z"/><path d="m7.7587 2h8.4826c.805-.00001 1.4693-.00002 2.0105.04419.5621.04593 1.0788.14449 1.5642.39179.7526.38349 1.3645.99541 1.748 1.74806.2473.48533.3459 1.00204.3918 1.56414.0442.54121.0442 1.20559.0442 2.01059v7.23053l.0001.0105v1.2414c0 .8049 0 1.4693-.0442 2.0105-.0269.3288-.0718.6421-.1539.9426-.0407.1491-.0906.295-.152.4382-.0265.0616-.0551.1228-.086.1835-.3835.7526-.9954 1.3645-1.748 1.748-.4854.2473-1.0021.3459-1.5642.3918-.5412.0442-1.2055.0442-2.0105.0442h-8.49142c-.11863 0-.23419 0-.34676-.0001h-.50893c-.27038 0-.53614 0-.75011-.0189l-.02188-.002c-.13072-.0059-.25533-.0135-.37402-.0232-.5621-.0459-1.07881-.1445-1.56414-.3918-.75265-.3835-1.36457-.9954-1.74806-1.748-.2473-.4854-.34586-1.0021-.39179-1.5642-.04421-.5412-.0442-1.2055-.04419-2.0105v-8.4826c-.00001-.80496-.00002-1.46933.04419-2.01052.04593-.5621.14449-1.07881.39179-1.56414.38349-.75265.99541-1.36457 1.74806-1.74806.48533-.2473 1.00204-.34586 1.56414-.39179.54119-.04421 1.20556-.0442 2.01052-.04419zm12.2413 5.8v4.7856l-2.184-2.1841c-.1785-.1784-.3522-.3523-.5115-.48741-.1748-.14844-.3967-.30801-.6864-.40214-.4017-.13052-.8344-.13052-1.2361 0-.2897.09413-.5116.25371-.6864.40214-.1592.13511-.333.30901-.5115.48741l-8.5518 8.5519c-.19121.1911-.37916.379-.51705.5437-.0426.0509-.10004.1213-.15832.2094-.3145-.1923-.57069-.4683-.73894-.7985-.07969-.1564-.14462-.3806-.18044-.819-.03677-.4501-.03755-1.0324-.03755-1.889v-8.4c0-.85658.00078-1.43887.03755-1.88896.03582-.43842.10075-.66262.18044-.81902.19174-.37632.49771-.68229.87403-.87403.1564-.07969.3806-.14462.81902-.18044.45009-.03677 1.03238-.03755 1.88896-.03755h8.4c.8566 0 1.4389.00078 1.889.03755.4384.03582.6626.10075.819.18044.3763.19174.6823.49771.874.87403.0797.1564.1446.3806.1804.81902.0368.45009.0376 1.03238.0376 1.88896z"/></g></svg>

<svg width="24" height="24" viewBox="0 0 24 24" fill="none" xmlns="http://www.w3.org/2000/svg">
<path fill-rule="evenodd" clip-rule="evenodd" d="M8.5 5.5C6.84315 5.5 5.5 6.84315 5.5 8.5C5.5 10.1569 6.84315 11.5 8.5 11.5C10.1569 11.5 11.5 10.1569 11.5 8.5C11.5 6.84315 10.1569 5.5 8.5 5.5Z" fill="#801ED7"/>
<path fill-rule="evenodd" clip-rule="evenodd" d="M7.7587 2H16.2413C17.0463 1.99999 17.7106 1.99998 18.2518 2.04419C18.8139 2.09012 19.3306 2.18868 19.816 2.43598C20.5686 2.81947 21.1805 3.43139 21.564 4.18404C21.8113 4.66937 21.9099 5.18608 21.9558 5.74818C22 6.28939 22 6.95377 22 7.75877V14.9893L22.0001 14.9998V16.2412C22.0001 17.0461 22.0001 17.7105 21.9559 18.2517C21.929 18.5805 21.8841 18.8938 21.802 19.1943C21.7613 19.3434 21.7114 19.4893 21.65 19.6325C21.6235 19.6941 21.5949 19.7553 21.564 19.816C21.1805 20.5686 20.5686 21.1805 19.816 21.564C19.3306 21.8113 18.8139 21.9099 18.2518 21.9558C17.7106 22 17.0463 22 16.2413 22H7.74988C7.63125 22 7.51569 22 7.40312 21.9999H6.89419C6.62381 21.9999 6.35805 21.9999 6.14408 21.981L6.1222 21.979C5.99148 21.9731 5.86687 21.9655 5.74818 21.9558C5.18608 21.9099 4.66937 21.8113 4.18404 21.564C3.43139 21.1805 2.81947 20.5686 2.43598 19.816C2.18868 19.3306 2.09012 18.8139 2.04419 18.2518C1.99998 17.7106 1.99999 17.0463 2 16.2413V7.7587C1.99999 6.95374 1.99998 6.28937 2.04419 5.74818C2.09012 5.18608 2.18868 4.66937 2.43598 4.18404C2.81947 3.43139 3.43139 2.81947 4.18404 2.43598C4.66937 2.18868 5.18608 2.09012 5.74818 2.04419C6.28937 1.99998 6.95374 1.99999 7.7587 2ZM20 7.8V12.5856L17.816 10.4015C17.6375 10.2231 17.4638 10.0492 17.3045 9.91409C17.1297 9.76565 16.9078 9.60608 16.6181 9.51195C16.2164 9.38143 15.7837 9.38143 15.382 9.51195C15.0923 9.60608 14.8704 9.76566 14.6956 9.91409C14.5364 10.0492 14.3626 10.2231 14.1841 10.4015L5.6323 18.9534C5.44109 19.1445 5.25314 19.3324 5.11525 19.4971C5.07265 19.548 5.01521 19.6184 4.95693 19.7065C4.64243 19.5142 4.38624 19.2382 4.21799 18.908C4.1383 18.7516 4.07337 18.5274 4.03755 18.089C4.00078 17.6389 4 17.0566 4 16.2V7.8C4 6.94342 4.00078 6.36113 4.03755 5.91104C4.07337 5.47262 4.1383 5.24842 4.21799 5.09202C4.40973 4.7157 4.7157 4.40973 5.09202 4.21799C5.24842 4.1383 5.47262 4.07337 5.91104 4.03755C6.36113 4.00078 6.94342 4 7.8 4H16.2C17.0566 4 17.6389 4.00078 18.089 4.03755C18.5274 4.07337 18.7516 4.1383 18.908 4.21799C19.2843 4.40973 19.5903 4.7157 19.782 5.09202C19.8617 5.24842 19.9266 5.47262 19.9624 5.91104C19.9992 6.36113 20 6.94342 20 7.8Z" fill="#801ED7"/>
</svg>
